packages/tokens/icons/translate/size32Px.svg

<svg viewBox="0 0 32 32" fill="none" xmlns="http://www.w3.org/2000/svg" width="1em" height="1em"><path d="M20 14.5L27.5 14.5C28.6046 14.5 29.5 15.3954 29.5 16.5V27.5C29.5 28.6046 28.6046 29.5 27.5 29.5H16.5C15.3954 29.5 14.5 28.6046 14.5 27.5L14.5 20" stroke="currentColor" stroke-linecap="round"/><path d="M25 19.5C24.5 22 22.5 25.5 18 25.5" stroke="currentColor" stroke-linecap="round" stroke-linejoin="round"/><path d="M20 19.5C20.5 22 22.5 25.5 27 25.5" stroke="currentColor" stroke-linecap="round" stroke-linejoin="round"/><path d="M18.5 19.5H26.5" stroke="currentColor" stroke-linecap="round" stroke-linejoin="round"/><path d="M22.5 18.1001V19.5" stroke="currentColor" stroke-linecap="round" stroke-linejoin="round"/><path d="M20.5 5.5L24.5 5.5C25.6046 5.5 26.5 6.39543 26.5 7.5V11.5" stroke="currentColor" stroke-linecap="round"/><path d="M11.5 26.5H7.5C6.39543 26.5 5.5 25.6046 5.5 24.5L5.5 20.5" stroke="currentColor" stroke-linecap="round"/><rect x="2.5" y="2.5" width="15" height="15" rx="1.5" stroke="currentColor"/><path d="M7.14283 11.5H12.5" stroke="currentColor"/><path d="M6 14L10 6L14 14" stroke="currentColor" stroke-linecap="round" stroke-linejoin="round"/></svg>

<svg xmlns="http://www.w3.org/2000/svg" fill="none" viewBox="0 0 32 32" width="1em" height="1em"><path stroke="currentColor" stroke-linecap="round" d="M20 14.5h7.5a2 2 0 0 1 2 2v11a2 2 0 0 1-2 2h-11a2 2 0 0 1-2-2V20"/><path stroke="currentColor" stroke-linecap="round" stroke-linejoin="round" d="M25 19.5c-.5 2.5-2.5 6-7 6"/><path stroke="currentColor" stroke-linecap="round" stroke-linejoin="round" d="M20 19.5c.5 2.5 2.5 6 7 6m-8.5-6h8m-4-1.4v1.4"/><path stroke="currentColor" stroke-linecap="round" d="M20.5 5.5h4a2 2 0 0 1 2 2v4m-15 15h-4a2 2 0 0 1-2-2v-4"/><rect width="15" height="15" x="2.5" y="2.5" stroke="currentColor" rx="1.5"/><path stroke="currentColor" d="M7.143 11.5H12.5"/><path stroke="currentColor" stroke-linecap="round" stroke-linejoin="round" d="m6 14 4-8 4 8"/></svg>
